X:1
T:Dalkarlasång
T:Dalkarlasång
T:Bind 1, No. 27
T:Otto Lindblad
T:G. Nyblæus
C:Otto Lindblad
Z:G. Nyblæus
%%score [ 1 2 3 4 ]
L:1/8
Q:1/4=120
M:4/4
K:F
V:1 treble-8 nm="Tenor 1" snm="T1."
V:2 treble-8 nm="T2"
V:3 bass nm="B1"
V:4 bass nm="B2"
V:1
!f!"^Tempo di marcia" c | c2 f2 e3 c | g3/2 g/ a3/2 g/ f2 c2 | d2 (_e>d) b3 a | %4
w: Jag|vet ett land, långt|upp i hö- gan Nord, ej|varmt och _ rikt som|
 g2 f2 f2 e3/2!p! c/ | c2 f2 f2 e2 | e3/2 d/ d3/2 d/ d2!<(! c2!<)! |!f! B7/2 A/ A7/2 A/ | %8
w: Sö- derns län- der, men|hjer- tan klap- pa|der för fo- ster- jord, och|man- dom bor, ja!|
 d4- d d e3/2 d/ |!<(! c2!<)! a4 g3/2 f/ |!>(! g4 f2!>)! z!p! f | f3/2 e/ d3/2 c/ =B2 c2 | %12
w: man- * dom bor på|Sil- jans grö- na|strän- der; och|sko- gar su- sa der i|
 e2 g2 d3 G | f3/2 e/ d3/2 c/ =B2 c2 | e3 (d/c/) d2 z!f! e | !>!e7/2 f/ !>!f7/2 _e/ | %16
w: dy- ster prakt, och|elf- var bru- sa der från|trakt till _ trakt: ett|herr- ligt land, ett|
 !>!e7/2 d/ !>!d7/2 d/ |!f! b2 a2 g2 f2 |!>(! e7/2 d/!>)!"^dim." d7/2 c/ | c7/2 B/ B2 z2 | %20
w: herr- ligt land, I|go- de Da- la-|män! I go- de|Da- la- män!|
!pp! A4 B2 c2 | d2 G2 c2 B2 | A2!<(! f2 f2 f2!<)! | f4!f! g3 g | f4 e4 | f4 z3 |] %26
w: och hvem det|lan- det en- gång|sett, han läng- tar|dit, läng- tar|dit i-|gen.|
V:2
!f! A | A2 c2 c3 c | c3/2 c/ c3/2 c/ c2 c2 | c2 c2 d3 d | d2 d2 c2 c3/2!p! c/ | A2 c2 B2 B2 | %6
w: Jag|vet ett land, långt|upp i hö- gan Nord, ej|varmt och rikt som|Sö- derns län- der, men|hjer- tan klap- pa|
 A3/2 A/ A3/2 A/ G2!<(! G2!<)! |!f! G7/2 F/ F7/2 F/ | B4- B _A A3/2 A/ |!<(! =A2!<)! f4 c3/2 c/ | %10
w: der för fo- ster- jord, och|man- dom bor, ja!|man- * dom bor på|Sil- jans grö- na|
!>(! c4 c2!>)! z!p! d | d3/2 c/ =B3/2 c/ d2 c2 | c2 c2 =B3 G | d3/2 c/ =B3/2 c/ d2 c2 | %14
w: strän- der; och|sko- gar su- sa der i|dy- ster prakt, och|elf- var bru- sa der från|
 c3 c =B2 z!f! _B | !>!B7/2 A/ !>!A7/2 c/ | !>!c7/2 c/ !>!c7/2 c/ |!f! (Bd) d2 d2 d2 | %18
w: trakt till trakt: ett|herr- ligt land, ett|herr- ligt land, I|go- * de Da- la-|
!>(! c7/2 B/!>)!"^dim." B7/2 A/ | A7/2 G/ G2 z2 |!pp! F4 F2 F2 | F2 E2 F2 E2 | %22
w: män! I go- de|Da- la- män!|och hvem det|lan- det en- gång|
 F2!<(! A2 B2 c2!<)! | d4!f! d3 d | c4 B4 | A4 z3 |] %26
w: sett, han läng- tar|dit, läng- tar|dit i-|gen.|
V:3
!f! F, | F,2 A,2 B,3 B, | B,3/2 B,/ B,3/2 B,/ A,2 A,2 | A,2 A,2 B,3 C | B,2 G,2 G,2 G,3/2!p! E,/ | %5
w: Jag|vet ett land, långt|upp i hö- gan Nord, ej|varmt och rikt som|Sö- derns län- der, men|
 F,2 A,2 G,2 G,2 | F,3/2 F,/ F,3/2 F,/ E,2!<(! E,2!<)! |!f! E,7/2 F,/ F,7/2 F,/ | %8
w: hjer- tan klap- pa|der för fo- ster- jord, och|man- dom bor, ja!|
 F,4- F, F, F,3/2 F,/ |!<(! F,2!<)! C4 B,3/2 A,/ |!>(! B,4 A,2!>)! z!p! G, | %11
w: man- * dom bor på|Sil- jans grö- na|strän- der; och|
 G,3/2 G,/ G,3/2 G,/ G,2 G,2 | G,2 G,2 G,3 G, | G,3/2 G,/ G,3/2 G,/ G,2 G,2 | G,3 G, G,2 z!f! G, | %15
w: sko- gar su- sa der i|dy- ster prakt, och|elf- var bru- sa der från|trakt till trakt: ett|
 !>!G,7/2 F,/ !>!F,7/2 A,/ | !>!A,7/2 A,/ !>!A,7/2 A,/ |!f! B,2 C2 B,2 =B,2 | %18
w: herr- ligt land, ett|herr- ligt land, I|go- de Da- la-|
!>(! C2 z2!>)!"^dim." z4 | z8 |!pp! F,4 F,2 F,2 | F,2 C,2 C,2 C,2 | F,2!<(! F,2 G,2 A,2!<)! | %23
w: män!||och hvem det|lan- det en- gång|sett, han läng- tar|
 B,4!f! B,3 B, | A,4 G,4 | F,4 z3 |] %26
w: dit, läng- tar|dit i-|gen.|
V:4
!f! F, | F,2 F,2 G,3 G, | E,3/2 E,/ C,3/2 E,/ F,2 F,2 | ^F,2 F,2 G,2 (G,,>A,,) | %4
w: Jag|vet ett land, långt|upp i hö- gan Nord, ej|varmt och rikt som _|
 B,,2 =B,,2 C,2 C,3/2!p! C,/ | F,2 C,2 C,2 C,2 | C,3/2 C,/ C,3/2 C,/ C,2!<(! C,2!<)! | %7
w: Sö- derns län- der, men|hjer- tan klap- pa|der för fo- ster- jord, och|
!f! ^C,7/2 D,/ D,7/2 D,/ | B,,4- B,, =B,, B,,3/2 B,,/ |!<(! C,2!<)! C,4 C,3/2 C,/ | %10
w: man- dom bor, ja!|man- * dom bor på|Sil- jans grö- na|
!>(! (C,2 E,2) F,2!>)! z!p! =B,, | =B,,3/2 C,/ D,3/2 E,/ F,2 E,2 | C,2 E,2 G,3 G, | %13
w: strän- * der; och|sko- gar su- sa der i|dy- ster prakt, och|
 =B,,3/2 C,/ D,3/2 E,/ F,2 E,2 | C,3 E, G,2 z!f! C, | !>!C,7/2 F,/ !>!F,7/2 F,/ | %16
w: elf- var bru- sa der från|trakt till trakt: ett|herr- ligt land, ett|
 !>!F,7/2 ^F,/ !>!F,7/2 F,/ |!f! G,2 A,2 B,2 G,2 |!>(! C2 C,2!>)!"^dim." C,2 C,2 | C,6 (D,E,) | %20
w: herr- ligt land, I|go- de Da- la-|män! I go- de|Da- la- *|
!pp! F,2 _E,2 D,2 A,,2 | B,,2 B,,2 A,,2 G,,2 | F,,2!<(! F,,2 G,,2 A,,2!<)! | B,,4!f! B,,3 G,, | %24
w: män! och hvem det|lan- det en- gång|sett, han läng- tar|dit, läng- tar|
 C,4 C,4 | F,,4 z3 |] %26
w: dit i-|gen.|

